**kern	**silbe	**harmony	**phrase	**leadinstrument	**rhyme	**timestamp	**harte
*ICvox	*	*M4/4	*	*	*	*	*M4/4
*VRlead	*	*	*	*	*	*	*
*Hstimme	*	*	*	*	*	*	*
*g:	*	*g:	*g:	*g:	*	*g:	*g:
*M4/4	*	*	*	*	*	*	*
*clefG2	*	*	*	*	*	*	*
r;	.	1r;	.	r	.	0	N.C.
=1	=1	=1	=1	=1	=1	=1	=1
*>Letter>A	*>Letter>A	*>Letter>A	*>Letter>A	*>Letter>A	*>Letter>A	*>Letter>A	*>Letter>A
*>Label>Intro	*>Label>Intro	*>Label>Intro	*>Label>Intro	*>Label>Intro	*>Label>Intro	*>Label>Intro	*>Label>Intro
1r	.	1Gm	newline	r	.	0.511	G:1
=2	=2	=2	=2	=2	=2	=2	=2
1r	.	1Gm	.	r	.	3.897	G:1
=3	=3	=3	=3	=3	=3	=3	=3
1r	.	1Gm	.	r	.	.	G:1
=4	=4	=4	=4	=4	=4	=4	=4
1r	.	1Gm	.	r	.	.	G:1
=5	=5	=5	=5	=5	=5	=5	=5
*>Letter>B	*>Letter>B	*>Letter>B	*>Letter>B	*>Letter>B	*>Letter>B	*>Letter>B	*>Letter>B
*>Label>Trans	*>Label>Trans	*>Label>Trans	*>Label>Trans	*>Label>Trans	*>Label>Trans	*>Label>Trans	*>Label>Trans
1r	.	2Gm	newline	r	.	7.284	G:1
.	.	2B-M	.	r	.	8.113	B-:1
=6	=6	=6	=6	=6	=6	=6	=6
1r	.	2E-M	.	r	.	8.942	E-:1
.	.	2Cm	.	r	.	9.772	C:1
=7	=7	=7	=7	=7	=7	=7	=7
1r	.	2Gm	.	r	.	10.601	G:1
.	.	2B-M	.	r	.	11.431	B-:1
=8	=8	=8	=8	=8	=8	=8	=8
2r	.	2E-M	.	r	.	12.26	E-:1
8r	.	2Cm	.	r	.	13.089	C:1
4d	Some-	.	.	.	.	.	.
[8e-	-times	.	.	.	.	.	.
=9	=9	=9	=9	=9	=9	=9	=9
*>Letter>C	*>Letter>C	*>Letter>C	*>Letter>C	*>Letter>C	*>Letter>C	*>Letter>C	*>Letter>C
*>Label>Verse	*>Label>Verse	*>Label>Verse	*>Label>Verse	*>Label>Verse	*>Label>Verse	*>Label>Verse	*>Label>Verse
2e-]	_	2Gm	newline	voice	.	13.919	G:1
4.G	I	2B-M	.	voice	.	14.748	B-:1
[8B-	feel	.	.	.	.	.	.
=10	=10	=10	=10	=10	=10	=10	=10
4B-]	_	2E-M	.	voice	.	15.578	E-:1
4G	I've	.	.	.	.	.	.
4B-	got	2Cm	.	voice	.	16.408	C:1
4e-	to	.	.	.	.	.	.
=11	=11	=11	=11	=11	=11	=11	=11
2r	.	2Gm	.	voice	.	17.237	G:1
8d	Run	2B-M	.	voice	.	18.067	B-:1
4G	a-	.	.	.	.	.	.
[8B-	-way,	.	.	.	.	.	.
=12	=12	=12	=12	=12	=12	=12	=12
8B-]	_	2E-M	.	voice	.	18.896	E-:1
4.G	I've	.	.	.	.	.	.
4B-	got	2Cm	.	voice	.	19.726	C:1
4e-	to	.	.	.	.	.	.
=13	=13	=13	=13	=13	=13	=13	=13
2r	.	2Gm	.	voice	.	20.556	G:1
8d	Get	2B-M	.	voice	.	21.385	B-:1
4G	a-	.	.	.	.	.	.
[8B-	-way	.	.	.	A	.	.
=14	=14	=14	=14	=14	=14	=14	=14
8B-]	_	2E-M	.	voice	.	22.215	E-:1
4G	from	.	.	.	.	.	.
8G	the	.	.	.	.	.	.
4B-	pain	2Cm	.	voice	A	23.044	C:1
4c	you	.	.	.	.	.	.
=15	=15	=15	=15	=15	=15	=15	=15
4d	drive	1Gm	.	voice	.	23.874	G:1
8G	_	.	.	.	.	.	.
[8G	in-	.	.	.	.	.	.
8G]	_	.	.	.	.	.	.
4F	-to	.	.	.	.	.	.
8G	the	.	.	.	.	.	.
=16	=16	=16	=16	=16	=16	=16	=16
8B-	heart	1Gm	.	voice	.	25.533	G:min/b3
8c	_	.	.	.	.	.	.
8d	of	.	.	.	.	.	.
[8d	me	.	.	.	.	.	.
4d]	_	.	.	.	.	.	.
8f	The	.	.	.	.	.	.
[8d	love	.	.	.	.	.	.
=17	=17	=17	=17	=17	=17	=17	=17
2d]	_	1Gm	newline	voice	.	27.192	G:1
4.G	we	.	.	.	.	.	.
[8B-	share	.	.	.	B	.	.
=18	=18	=18	=18	=18	=18	=18	=18
4B-]	_	1Gm	.	voice	.	28.846	G:min/b3
4r	.	.	.	.	.	.	.
4B-	Seems	.	.	.	.	.	.
8c	to	.	.	.	.	.	.
[8d	go	.	.	.	.	.	.
=19	=19	=19	=19	=19	=19	=19	=19
4d]	_	1Gm	.	voice	.	30.5	G:1
4r	.	.	.	.	.	.	.
4.G	no-	.	.	.	.	.	.
[8B-	-where	.	.	.	B	.	.
=20	=20	=20	=20	=20	=20	=20	=20
4B-]	_	1Gm	.	voice	.	32.154	G:min/b3
4r	.	.	.	.	.	.	.
8B-	And	.	.	.	.	.	.
4c	I've	.	.	.	.	.	.
[8d	lost	.	.	.	.	.	.
=21	=21	=21	=21	=21	=21	=21	=21
4d]	_	1Gm	.	voice	.	33.808	G:1
4r	.	.	.	.	.	.	.
4.G	my	.	.	.	.	.	.
8B-	light	.	.	.	C	.	.
=22	=22	=22	=22	=22	=22	=22	=22
4G	_	1Gm	.	voice	.	35.462	G:min/b3
4r	.	.	.	.	.	.	.
8B-	For	.	.	.	.	.	.
4c	I	.	.	.	.	.	.
[8d	toss	.	.	.	.	.	.
=23	=23	=23	=23	=23	=23	=23	=23
8d]	_	1Gm	.	voice	.	37.117	G:1
4d	and	.	.	.	.	.	.
4d	turn,	.	.	.	.	.	.
8d	I	.	.	.	.	.	.
4d	can't	.	.	.	.	.	.
=24	=24	=24	=24	=24	=24	=24	=24
4d	sleep	1B-M	.	voice	.	38.771	B-:1
4d	at	.	.	.	.	.	.
4d	night	.	.	.	C	.	.
4r	.	.	.	.	.	.	.
=25	=25	=25	=25	=25	=25	=25	=25
*>Letter>D	*>Letter>D	*>Letter>D	*>Letter>D	*>Letter>D	*>Letter>D	*>Letter>D	*>Letter>D
*>Label>Chorus	*>Label>Chorus	*>Label>Chorus	*>Label>Chorus	*>Label>Chorus	*>Label>Chorus	*>Label>Chorus	*>Label>Chorus
4.r	.	1GM	newline	voice	.	40.425	G:1
[8B	Once	.	.	.	.	.	.
4B]	_	.	.	.	.	.	.
4G	I	.	.	.	.	.	.
=26	=26	=26	=26	=26	=26	=26	=26
4A	ran	1GM	.	voice	.	.	G:1
8G	to	.	.	.	.	.	.
[8G	you	.	.	.	.	.	.
4G]	_	.	.	.	.	.	.
4r	.	.	.	.	.	.	.
=27	=27	=27	=27	=27	=27	=27	=27
4.r	.	1B-M	.	voice	.	43.757	B-:1
[8d	Now	.	.	.	.	.	.
4d]	_	.	.	.	.	.	.
4B-	I'll	.	.	.	.	.	.
=28	=28	=28	=28	=28	=28	=28	=28
4d	run	1B-M	.	voice	.	.	B-:1
8G	from	.	.	.	.	.	.
[8B-	you	.	.	.	.	.	.
2B-]	_	.	.	.	.	.	.
=29	=29	=29	=29	=29	=29	=29	=29
8r	.	1E-M	.	voice	.	47.09	E-:1
4.e-	This	.	.	.	.	.	.
4e-	tain-	.	.	.	.	.	.
8e-	-ted	.	.	.	.	.	.
[8e-	love	.	.	.	.	.	.
=30	=30	=30	=30	=30	=30	=30	=30
8e-]	_	1E-M	.	voice	.	.	E-:1
4e-	you've	.	.	.	.	.	.
4f	gi-	.	.	.	.	.	.
8e-	-ven	.	.	.	.	.	.
8r	.	.	.	.	.	.	.
8B-	I	.	.	.	.	.	.
=31	=31	=31	=31	=31	=31	=31	=31
4c	give	1Cm	.	voice	.	50.422	C:min
8c	you	.	.	.	.	.	.
[8c	all	.	.	.	.	.	.
4c]	_	.	.	.	.	.	.
8c	a	.	.	.	.	.	.
[8d	boy	.	.	.	.	.	.
=32	=32	=32	=32	=32	=32	=32	=32
8d]	_	1Cm	.	voice	.	.	C:min
4c	could	.	.	.	.	.	.
4c	give	.	.	.	.	.	.
8e-	you	.	.	.	.	.	.
4r	.	.	.	.	.	.	.
=33	=33	=33	=33	=33	=33	=33	=33
4d	Take	1Cm	.	voice	.	53.755	C:min
4d	my	.	.	.	.	.	.
4d	tears	.	.	.	D	.	.
4d	and	.	.	.	.	.	.
=34	=34	=34	=34	=34	=34	=34	=34
4d	that's	1Cm	.	voice	.	.	C:min
4d	not	.	.	.	.	.	.
8d	near-	.	.	.	D	.	.
4d	-ly	.	.	.	.	.	.
[8g	all	.	.	.	.	.	.
=35	=35	=35	=35	=35	=35	=35	=35
*>Letter>B	*>Letter>B	*>Letter>B	*>Letter>B	*>Letter>B	*>Letter>B	*>Letter>B	*>Letter>B
*>Label>Trans	*>Label>Trans	*>Label>Trans	*>Label>Trans	*>Label>Trans	*>Label>Trans	*>Label>Trans	*>Label>Trans
4g]	_	2Gm	newline	voice	.	57.088	G:1
4r	.	.	.	.	.	.	.
4r	.	2B-M	.	voice	.	57.906	B-:1
8G	Tain-	.	.	.	.	.	.
8G	-ted	.	.	.	.	.	.
=36	=36	=36	=36	=36	=36	=36	=36
8B-	love	2E-M	.	voice	.	58.725	E-:1
4.G	_	.	.	.	.	.	.
2r	.	2Cm	.	voice	.	59.544	C:1
=37	=37	=37	=37	=37	=37	=37	=37
4.r	.	2Gm	.	voice	.	60.362	G:1
[8d	Tain-	.	.	.	.	.	.
8d]	_	2B-M	.	voice	.	61.181	B-:1
4G	-ted	.	.	.	.	.	.
8B-	love	.	.	.	.	.	.
=38	=38	=38	=38	=38	=38	=38	=38
2G	_	2E-M	.	voice	.	62	E-:1
2r	.	2Cm	.	voice	.	62.818	C:1
=39	=39	=39	=39	=39	=39	=39	=39
*>Letter>C	*>Letter>C	*>Letter>C	*>Letter>C	*>Letter>C	*>Letter>C	*>Letter>C	*>Letter>C
*>Label>Verse	*>Label>Verse	*>Label>Verse	*>Label>Verse	*>Label>Verse	*>Label>Verse	*>Label>Verse	*>Label>Verse
2d	Now	2Gm	newline	voice	.	63.637	G:1
4.G	I	2B-M	.	voice	.	64.471	B-:1
[8B-	know	.	.	.	.	.	.
=40	=40	=40	=40	=40	=40	=40	=40
4B-]	_	2E-M	.	voice	.	65.304	E-:1
4G	I've	.	.	.	.	.	.
4B-	got	2Cm	.	voice	.	66.138	C:1
4d	to	.	.	.	.	.	.
=41	=41	=41	=41	=41	=41	=41	=41
2r	.	2Gm	.	voice	.	66.971	G:1
8d	Run	2B-M	.	voice	.	67.805	B-:1
4G	a-	.	.	.	.	.	.
[8B-	-way,	.	.	.	.	.	.
=42	=42	=42	=42	=42	=42	=42	=42
8B-]	_	2E-M	.	voice	.	68.638	E-:1
4.G	I've	.	.	.	.	.	.
4G	got	2Cm	.	voice	.	69.472	C:1
4F	to	.	.	.	.	.	.
=43	=43	=43	=43	=43	=43	=43	=43
2r	.	2Gm	.	voice	.	70.306	G:1
8d	Get	2B-M	.	voice	.	71.139	B-:1
4G	a-	.	.	.	.	.	.
[8B-	-way	.	.	.	.	.	.
=44	=44	=44	=44	=44	=44	=44	=44
8B-]	_	2E-M	.	voice	.	71.973	E-:1
8r	.	.	.	.	.	.	.
4r	.	.	.	.	.	.	.
8B-	you	2Cm	.	voice	.	72.806	C:1
4c	don't	.	.	.	.	.	.
[8d	real-	.	.	.	.	.	.
=45	=45	=45	=45	=45	=45	=45	=45
4d]	_	1Gm	.	voice	.	73.64	G:1
8d	-ly	.	.	.	.	.	.
[8d	want	.	.	.	.	.	.
8d]	_	.	.	.	.	.	.
4G	a-	.	.	.	.	.	.
8A	-ny	.	.	.	.	.	.
=46	=46	=46	=46	=46	=46	=46	=46
8B-	more	1Gm	.	voice	.	75.307	G:min/b3
4d	from	.	.	.	.	.	.
[8d	me	.	.	.	.	.	.
4d]	_	.	.	.	.	.	.
8f	To	.	.	.	.	.	.
[8d	make	.	.	.	.	.	.
=47	=47	=47	=47	=47	=47	=47	=47
2d]	_	1Gm	newline	voice	.	76.974	G:1
4.G	things	.	.	.	.	.	.
[8B-	right	.	.	.	C	.	.
=48	=48	=48	=48	=48	=48	=48	=48
4B-]	_	1Gm	.	voice	.	78.626	G:min/b3
8G	You	.	.	.	.	.	.
4B-	need	.	.	.	.	.	.
4c	some-	.	.	.	.	.	.
[8d	-one	.	.	.	.	.	.
=49	=49	=49	=49	=49	=49	=49	=49
4d]	_	1Gm	.	voice	.	80.278	G:1
8r	.	.	.	.	.	.	.
8F	to	.	.	.	.	.	.
4G	hold	.	.	.	.	.	.
8G	you	.	.	.	.	.	.
8B-	tight	.	.	.	C	.	.
=50	=50	=50	=50	=50	=50	=50	=50
4G	_	1Gm	.	voice	.	81.93	G:min/b3
4r	.	.	.	.	.	.	.
4B-	And	.	.	.	.	.	.
8c	you	.	.	.	.	.	.
[8d	think	.	.	.	.	.	.
=51	=51	=51	=51	=51	=51	=51	=51
8d]	_	1Gm	.	voice	.	83.581	G:1
8G	love	.	.	.	.	.	.
4r	.	.	.	.	.	.	.
8G	is	.	.	.	.	.	.
4F	to	.	.	.	.	.	.
8B-	pray	.	.	.	A	.	.
=52	=52	=52	=52	=52	=52	=52	=52
4G	_	1Gm	.	voice	.	85.233	G:min/b3
4r	.	.	.	.	.	.	.
8B-	But	.	.	.	.	.	.
4c	I'm	.	.	.	.	.	.
[8d	sor-	.	.	.	.	.	.
=53	=53	=53	=53	=53	=53	=53	=53
8d]	_	1Gm	.	voice	.	86.885	G:1
4d	-ry,	.	.	.	.	.	.
4d	I	.	.	.	.	.	.
4d	don't	.	.	.	.	.	.
8r	.	.	.	.	.	.	.
=54	=54	=54	=54	=54	=54	=54	=54
4d	pray	1B-M	.	voice	A	88.537	B-:1
4d	that	.	.	.	.	.	.
4d	way	.	.	.	A	.	.
4r	.	.	.	.	.	.	.
=55	=55	=55	=55	=55	=55	=55	=55
*>Letter>D	*>Letter>D	*>Letter>D	*>Letter>D	*>Letter>D	*>Letter>D	*>Letter>D	*>Letter>D
*>Label>Chorus	*>Label>Chorus	*>Label>Chorus	*>Label>Chorus	*>Label>Chorus	*>Label>Chorus	*>Label>Chorus	*>Label>Chorus
4.r	.	1GM	newline	voice	.	90.188	G:1
[8B	Once	.	.	.	.	.	.
4B]	_	.	.	.	.	.	.
4G	I	.	.	.	.	.	.
=56	=56	=56	=56	=56	=56	=56	=56
4A	ran	1GM	.	voice	.	.	G:1
8G	to	.	.	.	.	.	.
[8G	you	.	.	.	.	.	.
4G]	_	.	.	.	.	.	.
4r	.	.	.	.	.	.	.
=57	=57	=57	=57	=57	=57	=57	=57
4.r	.	1B-M	.	voice	.	93.513	B-:1
[8d	Now	.	.	.	.	.	.
4d]	_	.	.	.	.	.	.
4B-	I'll	.	.	.	.	.	.
=58	=58	=58	=58	=58	=58	=58	=58
4d	run	1B-M	.	voice	.	.	B-:1
8G	from	.	.	.	.	.	.
[8B-	you	.	.	.	.	.	.
2B-]	_	.	.	.	.	.	.
=59	=59	=59	=59	=59	=59	=59	=59
8r	.	1E-M	.	voice	.	96.838	E-:1
4.e-	This	.	.	.	.	.	.
4e-	tain-	.	.	.	.	.	.
8e-	-ted	.	.	.	.	.	.
[8e-	love	.	.	.	.	.	.
=60	=60	=60	=60	=60	=60	=60	=60
8e-]	_	1E-M	.	voice	.	.	E-:1
4e-	you've	.	.	.	.	.	.
4f	gi-	.	.	.	.	.	.
8e-	-ven	.	.	.	.	.	.
8r	.	.	.	.	.	.	.
8B-	I	.	.	.	.	.	.
=61	=61	=61	=61	=61	=61	=61	=61
4c	give	1Cm	.	voice	.	100.163	C:min
8c	you	.	.	.	.	.	.
[8c	all	.	.	.	.	.	.
4c]	_	.	.	.	.	.	.
8c	a	.	.	.	.	.	.
[8d	boy	.	.	.	.	.	.
=62	=62	=62	=62	=62	=62	=62	=62
8d]	_	1Cm	.	voice	.	.	C:min
4c	could	.	.	.	.	.	.
4c	give	.	.	.	.	.	.
8e-	you	.	.	.	.	.	.
4r	.	.	.	.	.	.	.
=63	=63	=63	=63	=63	=63	=63	=63
4d	Take	1Cm	.	voice	.	103.487	C:min
4d	my	.	.	.	.	.	.
4d	tears	.	.	.	D	.	.
4d	and	.	.	.	.	.	.
=64	=64	=64	=64	=64	=64	=64	=64
4d	that's	1Cm	.	voice	.	.	C:min
4d	not	.	.	.	.	.	.
8d	near-	.	.	.	D	.	.
4d	-ly	.	.	.	.	.	.
[8g	all	.	.	.	.	.	.
=65	=65	=65	=65	=65	=65	=65	=65
*>Letter>B	*>Letter>B	*>Letter>B	*>Letter>B	*>Letter>B	*>Letter>B	*>Letter>B	*>Letter>B
*>Label>Trans	*>Label>Trans	*>Label>Trans	*>Label>Trans	*>Label>Trans	*>Label>Trans	*>Label>Trans	*>Label>Trans
4g]	_	2Gm	newline	voice	.	106.812	G:1
4r	.	.	.	.	.	.	.
4r	.	2B-M	.	voice	.	107.637	B-:1
8G	Tain-	.	.	.	.	.	.
8G	-ted	.	.	.	.	.	.
=66	=66	=66	=66	=66	=66	=66	=66
8B-	love	2E-M	.	voice	.	108.461	E-:1
4.G	_	.	.	.	.	.	.
2r	.	2Cm	.	voice	.	109.286	C:1
=67	=67	=67	=67	=67	=67	=67	=67
4.r	.	2Gm	.	voice	.	110.111	G:1
[8d	Tain-	.	.	.	.	.	.
8d]	_	2B-M	.	voice	.	110.935	B-:1
4G	-ted	.	.	.	.	.	.
8B-	love	.	.	.	.	.	.
=68	=68	=68	=68	=68	=68	=68	=68
2G	_	2E-M	.	voice	.	111.76	E-:1
8r	.	2Cm	.	voice	.	112.585	C:1
4.b-	Don't	.	.	.	.	.	.
=69	=69	=69	=69	=69	=69	=69	=69
*>Letter>C	*>Letter>C	*>Letter>C	*>Letter>C	*>Letter>C	*>Letter>C	*>Letter>C	*>Letter>C
*>Label>Verse	*>Label>Verse	*>Label>Verse	*>Label>Verse	*>Label>Verse	*>Label>Verse	*>Label>Verse	*>Label>Verse
2g	touch	2Gm	newline	voice	.	113.409	G:1
4.g	me,	2B-M	.	voice	.	114.238	B-:1
[8g	please	.	.	.	E	.	.
=70	=70	=70	=70	=70	=70	=70	=70
4g]	_	2E-M	.	voice	.	115.067	E-:1
4d-	I	.	.	.	.	.	.
8d-	can-	2Cm	.	voice	.	115.896	C:1
4d-	-not	.	.	.	.	.	.
[8B-	stand	.	.	.	.	.	.
=71	=71	=71	=71	=71	=71	=71	=71
4B-]	_	2Gm	.	voice	.	116.725	G:1
8G	the	.	.	.	.	.	.
4G	way	.	.	.	.	.	.
.	.	2B-M	.	voice	.	117.554	B-:1
4G	you	.	.	.	.	.	.
8r	.	.	.	.	.	.	.
=72	=72	=72	=72	=72	=72	=72	=72
2g	tease	2E-M	.	voice	E	118.383	E-:1
8r	.	2Cm	.	voice	.	119.212	C:1
4c	I	.	.	.	.	.	.
[8d	love	.	.	.	.	.	.
=73	=73	=73	=73	=73	=73	=73	=73
8d]	_	2Gm	.	voice	.	120.041	G:1
8G	you	.	.	.	.	.	.
8G	though	.	.	.	F	.	.
8G	you	.	.	.	.	.	.
8B-	hurt	2B-M	.	voice	.	120.87	B-:1
4G	me	.	.	.	.	.	.
[8G	so	.	.	.	F	.	.
=74	=74	=74	=74	=74	=74	=74	=74
4G]	_	2E-M	.	voice	.	121.699	E-:1
4r	.	.	.	.	.	.	.
4B-	Now	2Cm	.	voice	.	122.527	C:1
4c	I'm	.	.	.	.	.	.
=75	=75	=75	=75	=75	=75	=75	=75
4d	gon-	1Gm	.	voice	.	123.356	G:1
8d	-na	.	.	.	.	.	.
4d	pack	.	.	.	.	.	.
8d	my	.	.	.	.	.	.
4r	.	.	.	.	.	.	.
=76	=76	=76	=76	=76	=76	=76	=76
8b-	things	1Gm	.	voice	.	125.014	G:min/b3
4g	and	.	.	.	.	.	.
[8g	go	.	.	.	F	.	.
4g]	_	.	.	.	.	.	.
4r	.	.	.	.	.	.	.
=77	=77	=77	=77	=77	=77	=77	=77
*>Letter>B	*>Letter>B	*>Letter>B	*>Letter>B	*>Letter>B	*>Letter>B	*>Letter>B	*>Letter>B
*>Label>Trans	*>Label>Trans	*>Label>Trans	*>Label>Trans	*>Label>Trans	*>Label>Trans	*>Label>Trans	*>Label>Trans
4r	.	2Gm	newline	voice	.	126.672	G:1
8r	.	.	.	.	.	.	.
[8d	Tain-	.	.	.	.	.	.
8d]	_	2B-M	.	voice	.	127.505	B-:1
4G	-ted	.	.	.	.	.	.
8B-	love	.	.	.	.	.	.
=78	=78	=78	=78	=78	=78	=78	=78
2G	_	2E-M	.	voice	.	128.337	E-:1
2r	.	2Cm	.	voice	.	129.17	C:1
=79	=79	=79	=79	=79	=79	=79	=79
4r	.	2Gm	.	voice	.	130.002	G:1
8r	.	.	.	.	.	.	.
[8d	Tain-	.	.	.	.	.	.
8d]	_	2B-M	.	voice	.	130.835	B-:1
4G	-ted	.	.	.	.	.	.
8B-	love	.	.	.	.	.	.
=80	=80	=80	=80	=80	=80	=80	=80
2G	_	2E-M	.	voice	.	131.667	E-:1
2r	.	2Cm	.	voice	.	132.5	C:1
=81	=81	=81	=81	=81	=81	=81	=81
4r	.	2Gm	newline	voice	.	133.332	G:1
8r	.	.	.	.	.	.	.
[8G	Tain-	.	.	.	.	.	.
8G]	_	2B-M	.	voice	.	134.16	B-:1
4F	-ted	.	.	.	.	.	.
[8G	love	.	.	.	.	.	.
=82	=82	=82	=82	=82	=82	=82	=82
2G]	_	2E-M	.	voice	.	134.987	E-:1
2r	.	2Cm	.	voice	.	135.814	C:1
=83	=83	=83	=83	=83	=83	=83	=83
4r	.	2Gm	.	voice	.	136.641	G:1
8r	.	.	.	.	.	.	.
[8G	Tain-	.	.	.	.	.	.
8G]	_	2B-M	.	voice	.	137.468	B-:1
4F	-ted	.	.	.	.	.	.
[8G	love	.	.	.	.	.	.
=84	=84	=84	=84	=84	=84	=84	=84
2G]	_	2E-M	.	voice	.	138.295	E-:1
2r	.	2Cm	.	voice	.	139.122	C:1
=85	=85	=85	=85	=85	=85	=85	=85
4r	.	2Gm	newline	voice	.	139.949	G:1
8r	.	.	.	.	.	.	.
[8G	Touch	.	.	.	.	.	.
8G]	_	2B-M	.	voice	.	140.786	B-:1
8F	me,	.	.	.	.	.	.
8G	ba-	.	.	.	.	.	.
8G	-by,	.	.	.	.	.	.
=86	=86	=86	=86	=86	=86	=86	=86
4B-	tain-	2E-M	.	voice	.	141.622	E-:1
4G	-ted	.	.	.	.	.	.
4G	love	2Cm	.	voice	.	142.459	C:1
4r	.	.	.	.	.	.	.
=87	=87	=87	=87	=87	=87	=87	=87
4r	.	2Gm	.	voice	.	143.295	G:1
8r	.	.	.	.	.	.	.
[8G	Touch	.	.	.	.	.	.
8G]	_	2B-M	.	voice	.	144.132	B-:1
8F	me,	.	.	.	.	.	.
8G	ba-	.	.	.	.	.	.
8G	-by,	.	.	.	.	.	.
=88	=88	=88	=88	=88	=88	=88	=88
4B-	tain-	2E-M	.	voice	.	144.969	E-:1
4G	-ted	.	.	.	.	.	.
4G	love	2Cm	.	voice	.	145.805	C:1
4r	.	.	.	.	.	.	.
=89	=89	=89	=89	=89	=89	=89	=89
*>Label>>Fadeout	*>Label>>Fadeout	*>Label>>Fadeout	*>Label>>Fadeout	*>Label>>Fadeout	*>Label>>Fadeout	*>Label>>Fadeout	*>Label>>Fadeout
4r	.	2Gm	newline	voice	.	146.642	G:1
8r	.	.	.	.	.	.	.
[8d	Tain-	.	.	.	.	.	.
8d]	_	2B-M	.	voice	.	147.126	B-:1
4G	-ted	.	.	.	.	.	.
8B-	love	.	.	.	.	.	.
=90	=90	=90	=90	=90	=90	=90	=90
2G	_	2E-M	.	voice	.	147.61	E-:1
2r	.	2Cm	.	voice	.	148.095	C:1
=91	=91	=91	=91	=91	=91	=91	=91
4r	.	2Gm	.	voice	.	148.579	G:1
8r	.	.	.	.	.	.	.
[8g	Tain-	.	.	.	.	.	.
8g]	_	2B-M	.	voice	.	149.064	B-:1
4f	-ted	.	.	.	.	.	.
[8g	love	.	.	.	.	.	.
=92	=92	=92	=92	=92	=92	=92	=92
2g]	_	2E-M	.	voice	.	149.548	E-:1
2r	.	2Cm	.	voice	.	150.032	C:1
=93	=93	=93	=93	=93	=93	=93	=93
4r	.	2Gm	.	voice	.	150.517	G:1
8r	.	.	.	.	.	.	.
[8g	Tain-	.	.	.	.	.	.
8g]	_	2B-M	.	voice	.	151.001	B-:1
4f	-ted	.	.	.	.	.	.
[8g	love	.	.	.	.	.	.
=94	=94	=94	=94	=94	=94	=94	=94
2g]	_	2E-M	.	voice	.	151.486	E-:1
2r	.	2Cm	.	voice	.	151.97	C:1
=95	=95	=95	=95	=95	=95	=95	=95
4r	.	2Gm	.	voice	.	152.454	G:1
8r	.	.	.	.	.	.	.
[8d	Tain-	.	.	.	.	.	.
8d]	_	2B-M	.	voice	.	152.939	B-:1
4G	-ted	.	.	.	.	.	.
8B-	love	.	.	.	.	.	.
=96	=96	=96	=96	=96	=96	=96	=96
2G	_	2E-M	.	voice	.	153.423	E-:1
2r	.	2Cm	.	voice	.	153.908	C:1
r;	.	1r;	.	r	.	158.267	N.C.
r;	.	1r;	.	r	.	161.437	N.C.
*-	*-	*-	*-	*-	*-	*-	*-
!!!BillboardChartDate: 1982/01/30
!!!BillboardPeak: 8
!!!BillboardWeeksOnChart: 43
!!!COC: Soft Cell
!!!EMD: The original transcription was written at half time for some reason. I fixed this. -Nat
!!!ENC: Nathaniel Condit-Schultz
!!!EST: Awating manual error checking and editing.
!!!OTL: Tainted Love
!!!RDF**chordsym: original McGill chord annotation + (implied pitch class set, with bass pitch in first position)
!!!RDF**harmony: **recip + pitch class of root + harmonic quality
!!!RDF**leadinstrument: original McGill primary instrumentation annotation
!!!RDF**phrase: newline = linebreak in original McGill transcription
!!!RDF**timestamp: McGill audio timestamp in seconds
!!!RDT: 2017/01/12/
!!!SampleActualRank: 73
!!!SampleID#: 0654
!!!SampleTargetRank: 75
